src/assets/img/shop/cabin.svg

<svg xmlns:xlink="http://www.w3.org/1999/xlink" height="182.7" width="436.45" xmlns="http://www.w3.org/2000/svg"><use height="182.7" width="436.45" xlink:href="#a"/><defs><g id="a" fill-rule="evenodd"><path d="M420.45 188.7H371.5q-118.85-42-234.25-49.1l-7.65.25h-.05l-.2-.05h-.1l-1.95-.45q-15.3-3.15-34.35-4.3l-18.5-.3-.7-.05q-33.65 0-57.45 5.5l-6.5 1.7-3.2.95-18.6 2.35-4-41q32.2.95 64.9 3.6l9.8.85 4.65.45 6.55.6q168.75 16.55 350.55 79" fill="#ff3395" fill-opacity=".212" transform="translate(16 -6)"/><path d="m23.2 143.05 5.9-1.5q21.4-4.95 51.7-4.95h.6l16.65.3q17.15 1.05 30.95 3.9l1.75.35.1.05.15.05h.05l1.45.3q21.4 4.95 21.4 11.9 0 7-21.4 11.95-21.45 4.95-51.7 4.95-30.3 0-51.7-4.95-21.45-4.95-21.45-11.95 0-5.35 12.7-9.5l2.85-.9m26.85 1.35q-16.75 3.25-16.75 7.95 0 4.65 16.75 7.95t40.4 3.3q23.65 0 40.4-3.3t16.75-7.95q0-4.7-16.75-7.95-16.75-3.3-40.4-3.3t-40.4 3.3" fill="#fe43a0" transform="translate(16 -6)"/><path d="M44.7 49.5 42 33.75l11.45-11.1L69.9 109.7l-6.55-.6L44.7 49.5m-28.3 0 14.15-7.4 28.15 66.55-9.8-.85-32.5-58.3" fill="#ffc1e0" transform="translate(16 -6)"/><path d="M53.45 22.65 42 33.75l2.7 15.75-14.15-7.4-14.15 7.4 1.4-7.9 1.35-7.85L7.7 22.65l15.8-2.35L30.55 6l7.05 14.3 15.85 2.35" fill="#fe43a0" transform="translate(16 -6)"/><path d="m44.7 49.5 18.65 59.6-4.65-.45L30.55 42.1l14.15 7.4m-37-26.85 11.45 11.1-1.35 7.85L7.7 22.65" fill="#fe92c9" transform="translate(16 -6)"/><path d="m139.35 87.85 6.7-8-2.85-10-37.65 43.75 3.9 1.8 29.9-27.55m16 9.25-5.55-8.8-37.6 28.35 5.8 2.75 37.35-22.3" fill="#ffc1e0" transform="translate(16 -6)"/><path d="m143.2 69.85 2.85 10-6.7 8 10.45.45 5.55 8.8 1.8-4.95 1.8-4.85L169 84.8l-8.1-6.5.65-10.35-8.6 5.75-9.75-3.85" fill="#fe43a0" transform="translate(16 -6)"/><path d="m139.35 87.85-29.9 27.55 2.75 1.25 37.6-28.35-10.45-.45M169 84.8l-10.05 2.5-1.8 4.85L169 84.8" fill="#fe92c9" transform="translate(16 -6)"/><path d="M21 152.2q0-5.2 18.6-8.85 18.6-3.65 44.9-3.65 26.3 0 44.9 3.65Q148 147 148 152.2q0 5.2-18.6 8.85-18.6 3.65-44.9 3.65-26.3 0-44.9-3.65Q21 157.4 21 152.2" fill="#ffc1e0" transform="translate(16 -6)"/></g></defs></svg>

<?xml version="1.0" encoding="UTF-8" standalone="no"?>
<svg xmlns:xlink="http://www.w3.org/1999/xlink" height="182.7px" width="436.45px" xmlns="http://www.w3.org/2000/svg">
  <g transform="matrix(1.0, 0.0, 0.0, 1.0, 16.0, -6.0)">
    <use height="182.7" transform="matrix(1.0, 0.0, 0.0, 1.0, -16.0, 6.0)" width="436.45" xlink:href="#shape0"/>
  </g>
  <defs>
    <g id="shape0" transform="matrix(1.0, 0.0, 0.0, 1.0, 16.0, -6.0)">
      <path d="M420.45 188.7 L371.5 188.7 Q252.65 146.7 137.25 139.6 L129.6 139.85 129.55 139.85 129.35 139.8 129.25 139.8 127.3 139.35 Q112.0 136.2 92.95 135.05 L74.45 134.75 73.75 134.7 Q40.1 134.7 16.3 140.2 L9.8 141.9 6.6 142.85 -12.0 145.2 -16.0 104.2 Q16.2 105.15 48.9 107.8 L58.7 108.65 63.35 109.1 69.9 109.7 Q238.65 126.25 420.45 188.7" fill="#ff3395" fill-opacity="0.21176471" fill-rule="evenodd" stroke="none"/>
      <path d="M23.2 143.05 L29.1 141.55 Q50.5 136.6 80.8 136.6 L81.4 136.6 98.05 136.9 Q115.2 137.95 129.0 140.8 L130.75 141.15 130.85 141.2 131.0 141.25 131.05 141.25 132.5 141.55 Q153.9 146.5 153.9 153.45 153.9 160.45 132.5 165.4 111.05 170.35 80.8 170.35 50.5 170.35 29.1 165.4 7.65 160.45 7.65 153.45 7.65 148.1 20.35 143.95 L23.2 143.05 M50.05 144.4 Q33.3 147.65 33.3 152.35 33.3 157.0 50.05 160.3 66.8 163.6 90.45 163.6 114.1 163.6 130.85 160.3 147.6 157.0 147.6 152.35 147.6 147.65 130.85 144.4 114.1 141.1 90.45 141.1 66.8 141.1 50.05 144.4" fill="#fe43a0" fill-rule="evenodd" stroke="none"/>
      <path d="M44.7 49.5 L42.0 33.75 53.45 22.65 69.9 109.7 63.35 109.1 44.7 49.5 M16.4 49.5 L30.55 42.1 58.7 108.65 48.9 107.8 16.4 49.5" fill="#ffc1e0" fill-rule="evenodd" stroke="none"/>
      <path d="M53.45 22.65 L42.0 33.75 44.7 49.5 30.55 42.1 16.4 49.5 17.8 41.6 19.15 33.75 7.7 22.65 23.5 20.3 30.55 6.0 37.6 20.3 53.45 22.65" fill="#fe43a0" fill-rule="evenodd" stroke="none"/>
      <path d="M44.7 49.5 L63.35 109.1 58.7 108.65 30.55 42.1 44.7 49.5 M7.7 22.65 L19.15 33.75 17.8 41.6 7.7 22.65" fill="#fe92c9" fill-rule="evenodd" stroke="none"/>
      <path d="M139.35 87.85 L146.05 79.85 143.2 69.85 105.55 113.6 109.45 115.4 139.35 87.85 M155.35 97.1 L149.8 88.3 112.2 116.65 118.0 119.4 155.35 97.1" fill="#ffc1e0" fill-rule="evenodd" stroke="none"/>
      <path d="M143.2 69.85 L146.05 79.85 139.35 87.85 149.8 88.3 155.35 97.1 157.15 92.15 158.95 87.3 169.0 84.8 160.9 78.3 161.55 67.95 152.95 73.7 143.2 69.85" fill="#fe43a0" fill-rule="evenodd" stroke="none"/>
      <path d="M139.35 87.85 L109.45 115.4 112.2 116.65 149.8 88.3 139.35 87.85 M169.0 84.8 L158.95 87.3 157.15 92.15 169.0 84.8" fill="#fe92c9" fill-rule="evenodd" stroke="none"/>
      <path d="M21.0 152.2 Q21.0 147.0 39.6 143.35 58.2 139.7 84.5 139.7 110.8 139.7 129.4 143.35 148.0 147.0 148.0 152.2 148.0 157.4 129.4 161.05 110.8 164.7 84.5 164.7 58.2 164.7 39.6 161.05 21.0 157.4 21.0 152.2" fill="#ffc1e0" fill-rule="evenodd" stroke="none"/>
    </g>
  </defs>
</svg>
